X:1
T:Silent Night
T:Arranged by Hazel Nguyen, ft. Rousseau
T:Silent Night
T:Copyright © 
T:Copyright © 
T:Copyright © 
T:Copyright © 
C:Arranged by Hazel Nguyen, ft. Rousseau
Z:Copyright ©
%%score { ( 1 4 ) | ( 2 3 ) }
L:1/8
Q:1/4=80
M:3/4
K:Ab
V:1 treble nm="Piano" snm="Pno."
V:4 treble 
V:2 treble 
V:3 treble 
V:1
"^\n\n"!8va(! !arpeggio![ac'e'a']2 !arpeggio![ac'e']2 !arpeggio![gc']2 | %1
 !arpeggio![fae']3 [fad']!8va)! [fb]2 | [cea]6- | [cea]6 | [ce]3 [df] [ce]2 | [Gc]6 | %6
 [ce]3 [df] [ce]2 | [Gc]6 | [dfb]4 [dfb]2 | [Bdg]6 | [cea]4 [cea]2 | [Gce]4 [Ac=e]2 | %12
 [Adf]4 [Adf]2 | [fa]3 [eg] [df]2 | [Ace]3 [df] [ce]2 | [Gc]4 [Ac]2 | [Adf]4 [Adf]2 | %17
 [fa]3 [eg] [df]2 | [Ace]3 [df] [ce]2 | [Gc]6 | [dfb]4 [dfb]2 | [Bfad']3 [Adfb] [Bdeg]2 | [cea]6 | %23
 [eac']6 | [cea]2 [Ace]2 [Gc]2 | [FAe]3 [FAd] [FB]2 | [CEA]6- | [CEA]6 || x3 x e2 | %29
 x4 !arpeggio![ee']2 | z2 z x e2 | x4 !arpeggio![ee']2 | [DFB]3 D [DFB]2 | [B,DG]4 E2 | %34
 [CEA]3 C [CEA]2 | [G,CE]4 [A,C=E]2 | [A,DF]3 A, [A,DF]2 | [FA]3 [EG] [A,DF]2 | z2 z x e2 | %39
 x4 [A,C]2 | [A,DF]3 A, [A,DF]2 | [FA]3 [EG] [A,DF]2 | z2 z x e2 | x4 x2 | [dfb]4 [dfb]2 | %45
 [=egd']2 [egb]2 [eg]2 | [cfa]6 | [cfc']6 | [cea]2 [Ace]2 [Gc]2 | [FAe]3 [FAd] [FB]2 | [CEA]6- | %51
 [CEA]6 ||!8va(! [c'e']3 [d'f'] [c'e']2 | [gc']6 | [c'e']3 [d'f'] [c'e']2 | [gc']6 | %56
 [d'f'b']4 [d'f'b']2 | [bd'g']6 | [c'e'a']4 [c'e'a']2 | [gc'e']4 [ac'=e']2 | [ad'f']4 [ad'f']2 | %61
 [f'a']3 [e'g'] [d'f']2 | [ac'e']3 [d'f'] [c'e']2 | [gc']4 [ac']2 | [ad'f']4 [ad'f']2 | %65
 [f'a']3 [e'g'] [d'f']2 | [ac'e']3 [d'f'] [c'e']2 | [gc']6 | [d'f'b']4 [d'f'b']2 | %69
 [=e'g'd'']2 [e'g'b']2 [e'g']2 | [c'f'a']6!8va)! | [c'f'c'']6 | [c'e'a']2 [ac'e']2 [gc']2 | %73
 [fae']3 [fad'] [fb]2 | [cea]3 [df] [ce]2 | c2!8va(! [e'e'']2 [d'd'']2 | %76
 [c'e'a'c'']3!8va)! [d'f'] [ce]2 | c2!8va(! [c'c'']2 [bb']2!8va)! | !arpeggio![ac'e'a']6 | %79
 !fermata![E,A,C]4 z2 |] %80
V:2
 !arpeggio![Ace]2 !arpeggio![Ace]2 !arpeggio![Ace]2 | !arpeggio![Acd]2 !arpeggio!E,2 [EBd]2 | %2
 A,E AF E2 | [CE]2 AF E2 | [EA]2 A,4 | [EA]2 A,F E2 | [EA]2 A,4 | [EA]2 A,F E2 | E,,E, B,D G2 | %9
 E,,2 A,2 B,2 | A,,E, A,[K:treble]E A2- | AA FC =E2 | D,,D, A,D F2 | z2 D,4 | %14
 A,,E, A,[K:treble]E A2 | [EA]2 A,2 [C=E]2 | D,,D, A,D F2 | z2 D,4 | A,,E, A,[K:treble]E A2 | %19
 [EA]2 A,F E2 | E,,E, B,D G2 | E,,2 F,,2 G,,2 | A,,E, A,F, E,2 | A,E AF E2 | [EA]2 [CE]2 [A,CE]2 | %25
 [A,CD]2 E,,2 [E,B,D]2 | [A,,E,A,]3 F, E,2 | E,2 A,,F, E,2 || A,,2 [E,A,]4 | A,,2 [E,A,]4 | %30
 A,,2 [E,A,]4 | A,,2 [E,A,]4 | E,,E, B,2 [B,E]2 | z G, E,B,, E,,2 | A,,E, A,2 z2 | %35
 z A, F,C, =E,A,, | D,,A,, D,2 z2 | x2 F,2 F,,2 | A,,E, A,2 z2 | z A, F,C, =E,A,, | D,,A,, D,2 z2 | %41
 x2 F,2 F,,2 | A,,E, A,2 z2 | z A, F,C, =E,A,, | _E,,_E, B,D G2 | =E,,=E, B,D BG | [FA]2 =E2 _E2 | %47
 [=DA]6 | [EA]2 [CE]2 [A,CE]2 | [A,CD]2 E,,2 [E,B,D]2 | A,,E, A,F, E,2 | A,E AF E2 || %52
!8va(! [ea]2 A4 | [ea]2 Af e2 | [ea]2 A4 | [ea]2 Af e2 | E,E Bd g2 | E,2 A2 B2 | %58
 A,E A[K:treble]e a2- | aa fc =e2 | D,D Ad f2 | z2 D4 | A,E A[K:treble]e a2 | [ea]2 A2 [c=e]2 | %64
 D,D Ad f2 | z2 D4 | A,E A[K:treble]e a2 | [ea]2 Af e2 | E,E Bd g2 | =E,=E Bd bg | %70
 [fa]2 =e2 _e2!8va)! | [=da]6 | [EAce]6 | [EBd]2 E,2 [EBd]2 | [A,EA]6 | [A,D=EA]4 z2 | [A,_EA]6 | %77
 [A,D=EA]4 z2 | !arpeggio![A,C_EA]6 | [A,A]6 |] %80
V:3
 x6 | x6 | x6 | x6 | x6 | x6 | x6 | x6 | x6 | x2 F,,2 G,,2 | x3[K:treble] x3 | x6 | x6 | x6 | %14
 x3[K:treble] x3 | x6 | x6 | x6 | x3[K:treble] x3 | x6 | x6 | x6 | x6 | x6 | x6 | x6 | x6 | x6 || %28
 x6 | x6 | x6 | x6 | x6 | x6 | x6 | x6 | x6 | z2 D,,2 x2 | x6 | x6 | x6 | z2 D,,2 x2 | x6 | x6 | %44
 x6 | x6 | x6 | x6 | x6 | x6 | x6 | x6 ||!8va(! x6 | x6 | x6 | x6 | x6 | x2 F,,2 G,,2 | %58
 x3[K:treble] x3 | x6 | x6 | x6 | x3[K:treble] x3 | x6 | x6 | x6 | x3[K:treble] x3 | x6 | x6 | x6 | %70
 x6!8va)! | x6 | x6 | x6 | x6 | x6 | x6 | x6 | x6 | x6 |] %80
V:4
!8va(! x6 | x4!8va)! x2 | x6 | x6 | x6 | x6 | x6 | x6 | x6 | x6 | x6 | x6 | x6 | x6 | x6 | x6 | %16
 x6 | x6 | x6 | x6 | x6 | x6 | x6 | x6 | x6 | x6 | x6 | x6 || [CE]3 [DF] [CE]2 | [G,C]6 | %30
 [CE]3 [DF] [CE]2 | [G,C]6 | x6 | x6 | x6 | x6 | x6 | x6 | [CE]3 [DF] [CE]2 | [G,C]4 x2 | x6 | x6 | %42
 [CE]3 [DF] [CE]2 | [G,C]6 | x6 | x6 | x6 | x6 | x6 | x6 | x6 | x6 ||!8va(! x6 | x6 | x6 | x6 | %56
 x6 | x6 | x6 | x6 | x6 | x6 | x6 | x6 | x6 | x6 | x6 | x6 | x6 | x6 | x6!8va)! | x6 | x6 | x6 | %74
 x6 | x2!8va(! x4 | x3!8va)! x3 | x2!8va(! x4!8va)! | x6 | x6 |] %80

